X:1
T:Title
%%score { ( 1 3 ) | ( 2 4 ) }
L:1/8
M:4/4
K:Eb
V:1 treble nm="Grand Piano"
V:3 treble 
V:2 bass 
V:4 bass 
V:1
 z4 z2[Q:1/4=112] E2 | E3 G B2 B2 | c2 B4 E2 | [EG]3 [EG] [EF]2 [DF]2 | E6 E2 | E3 G B2 B2 | %6
 c2 B4 [Ge]2 | [Fd]3 [Ge] [Fd]2 [Ec]2 | [DB]6 B2 | F3 G A2 [Dc]2 | c2 B4 B2 | c3 c e2 e2 | d6 B2 | %13
 [Ge]3 [Ge] [Ad]2 [Be]2 |[M:2/4] [Bd]2 c2 | B2 A2 |[M:4/4] G3 B [FA]2 [DF]2 |[M:3/4] E6 | %18
[M:1/4] [GB]2 |[M:4/4] [GB]3 [EG] [EB]2 [Ge]2 | [Ad]6 d2 | [Ad]3 [Ac] [GB]2 [FA]2 | G6 z F | %23
 G2 FE A2 GF |[M:9/8] B2 e- e e2- edc |[M:4/4] B3 e [EG]2 [DF]2 |[M:3/4] E6 |] %27
V:2
 z4 z2 [E,G,]2 | [E,G,]3 [E,B,E] [E,G,E]2 [E,G,E]2 | [E,A,E]2 [E,G,E]4 [E,G,]2 | %3
 [B,,B,]3 [B,,B,] [B,,B,]2 [B,,A,]2 | [E,G,]6 [E,G,]2 | [E,G,]3 [E,B,E] [E,G,E]2 [E,G,E]2 | %6
 [E,A,E]2 [E,G,E]4 [E,B,]2 | [F,B,]3 [F,B,] [F,=A,]2 [F,A,]2 | [B,,B,]6 [B,D]2 | %9
 [A,B,D]3 [G,B,D] [F,B,D]2 [B,,A,]2 | [E,A,E]2 [E,G,E]4 [E,G,E]2 | %11
 [A,E]3 [G,B,=E] [F,=A,F]2 [F,A,F]2 | [B,F]6 [B,A]2 | [E,B,]3 [E,B,] [F,B,]2 [G,E]2 | %14
[M:2/4] [A,E]2[K:treble] [A,EA]2 | [A,CF]2 [A,CF]2 | %16
[M:4/4] [B,E]3 [B,G][K:bass] [B,,B,]2 [B,,A,]2 |[M:3/4] [E,G,]6 |[M:1/4] [E,E]2 | %19
[M:4/4] [E,E]3 [E,B,] [E,G,]2 [E,B,]2 | [F,B,]6 [B,A]2 | [B,,B,]3 [B,,B,] [C,B,]2 [D,B,]2 | %22
 [E,B,E]6 G,A, | z2 .[A,D]2 z2 [B,D]2 | %24
[M:9/8][K:treble] [G,B,E]2 [B,_DG]- [B,DG] [A,CA]2- [A,CA][=A,D_G][A,EG] | %25
[M:4/4] [B,EG]3 [B,G][K:bass] [B,,B,]2 [B,,A,]2 |[M:3/4] [E,G,]6 |] %27
V:3
 x8 | x8 | x8 | x8 | x8 | x8 | x8 | x8 | x8 | x8 | x8 | x8 | x8 | x8 |[M:2/4] x4 | x4 |[M:4/4] x8 | %17
[M:3/4] x6 |[M:1/4] x2 |[M:4/4] x8 | x8 | x8 | z4 z2 E2 | x8 |[M:9/8] x9 |[M:4/4] x8 |[M:3/4] x6 |] %27
V:4
 x8 | x8 | x8 | x8 | x8 | x8 | x8 | x8 | x8 | x8 | x8 | x8 | x8 | x8 |[M:2/4] x2[K:treble] x2 | %15
 x4 |[M:4/4] x4[K:bass] x4 |[M:3/4] x6 |[M:1/4] x2 |[M:4/4] x8 | x8 | x8 | z4 z2 E,2 | %23
 [E,B,E]2 B,-[G,B,] [F,B,D]2 z A, |[M:9/8][K:treble] x9 |[M:4/4] x4[K:bass] x4 |[M:3/4] x6 |] %27

